homedots/icons/Definitivo/apps/scalable/org.gnome.Nautilus.svg

<?xml version="1.0" encoding="UTF-8" standalone="no"?>
<svg
   width="64"
   height="64"
   version="1.1"
   id="svg7"
   sodipodi:docname="nautilus.svg"
   inkscape:version="1.4.2 (ebf0e940d0, 2025-05-08)"
   xmlns:inkscape="http://www.inkscape.org/namespaces/inkscape"
   xmlns:sodipodi="http://sodipodi.sourceforge.net/DTD/sodipodi-0.dtd"
   xmlns="http://www.w3.org/2000/svg"
   xmlns:svg="http://www.w3.org/2000/svg">
  <defs
     id="defs7" />
  <sodipodi:namedview
     id="namedview7"
     pagecolor="#ffffff"
     bordercolor="#000000"
     borderopacity="0.25"
     inkscape:showpageshadow="2"
     inkscape:pageopacity="0.0"
     inkscape:pagecheckerboard="0"
     inkscape:deskcolor="#d1d1d1"
     inkscape:zoom="7.65625"
     inkscape:cx="32"
     inkscape:cy="32"
     inkscape:window-width="1366"
     inkscape:window-height="697"
     inkscape:window-x="0"
     inkscape:window-y="0"
     inkscape:window-maximized="1"
     inkscape:current-layer="svg7" />
  <rect
     style="opacity:0.2"
     width="45"
     height="20"
     x="10"
     y="41"
     rx="4"
     ry="4"
     id="rect1" />
  <path
     style="fill:#1565c0"
     d="M 14.21875,4 C 11.881563,4 10,5.8732 10,8.2 V 13.8 18 29 H 55 V 18 13.8 8.2 C 55,5.8732 53.118437,4 50.78125,4 Z"
     id="path1" />
  <path
     style="fill:#1e88e5"
     d="M 14.21875,21 C 11.881563,21 10,22.8732 10,25.2 V 30.6 34.8 46 H 55 V 34.8 30.6 25.2 C 55,22.8732 53.118437,21 50.78125,21 Z"
     id="path2" />
  <rect
     style="fill:#42a5f5"
     width="45"
     height="20"
     x="10"
     y="40"
     rx="4"
     ry="4"
     id="rect2" />
  <path
     style="opacity:0.2"
     d="m 28.5,13 c -0.831,0 -1.5,0.669 -1.5,1.5 0,0.831 0.669,1.5 1.5,1.5 h 8 C 37.331,16 38,15.331 38,14.5 38,13.669 37.331,13 36.5,13 Z m 0,17 c -0.831,0 -1.5,0.669 -1.5,1.5 0,0.831 0.669,1.5 1.5,1.5 h 8 C 37.331,33 38,32.331 38,31.5 38,30.669 37.331,30 36.5,30 Z m 0,20 c -0.831,0 -1.5,0.669 -1.5,1.5 0,0.831 0.669,1.5 1.5,1.5 h 8 C 37.331,53 38,52.331 38,51.5 38,50.669 37.331,50 36.5,50 Z"
     id="path3" />
  <rect
     style="fill:#ffffff"
     width="11"
     height="3"
     x="27"
     y="12"
     rx="1.5"
     ry="1.5"
     id="rect3" />
  <rect
     style="fill:#ffffff"
     width="11"
     height="3"
     x="27"
     y="29"
     rx="1.5"
     ry="1.5"
     id="rect4" />
  <rect
     style="fill:#ffffff"
     width="11"
     height="3"
     x="27"
     y="49"
     rx="1.5"
     ry="1.5"
     id="rect5" />
  <path
     style="opacity:0.1;fill:#ffffff"
     d="M 14.21875 4 C 11.881563 4 10 5.8724187 10 8.1992188 L 10 9.1992188 C 10 6.8724187 11.881563 5 14.21875 5 L 50.78125 5 C 53.118437 5 55 6.8724188 55 9.1992188 L 55 8.1992188 C 55 5.8724188 53.118437 4 50.78125 4 L 14.21875 4 z"
     id="path5" />
  <path
     style="opacity:0.1;fill:#ffffff"
     d="M 14.21875 21 C 11.881563 21 10 22.872419 10 25.199219 L 10 26.199219 C 10 23.872419 11.881563 22 14.21875 22 L 50.78125 22 C 53.118437 22 55 23.872419 55 26.199219 L 55 25.199219 C 55 22.872419 53.118437 21 50.78125 21 L 14.21875 21 z"
     id="path6" />
  <path
     style="opacity:0.2;fill:#ffffff"
     d="M 14 40 C 11.784 40 10 41.784 10 44 L 10 45 C 10 42.784 11.784 41 14 41 L 51 41 C 53.216 41 55 42.784 55 45 L 55 44 C 55 41.784 53.216 40 51 40 L 14 40 z"
     id="path7" />
</svg>

<?xml version="1.0" encoding="UTF-8" standalone="no"?>
<svg
   width="64"
   height="64"
   version="1.1"
   id="svg7"
   sodipodi:docname="org.gnome.Nautilus.svg"
   inkscape:version="1.4.2 (ebf0e940d0, 2025-05-08)"
   xmlns:inkscape="http://www.inkscape.org/namespaces/inkscape"
   xmlns:sodipodi="http://sodipodi.sourceforge.net/DTD/sodipodi-0.dtd"
   xmlns="http://www.w3.org/2000/svg"
   xmlns:svg="http://www.w3.org/2000/svg">
  <defs
     id="defs7" />
  <sodipodi:namedview
     id="namedview7"
     pagecolor="#ffffff"
     bordercolor="#000000"
     borderopacity="0.25"
     inkscape:showpageshadow="2"
     inkscape:pageopacity="0.0"
     inkscape:pagecheckerboard="0"
     inkscape:deskcolor="#d1d1d1"
     inkscape:zoom="7.65625"
     inkscape:cx="29.714286"
     inkscape:cy="38.4"
     inkscape:window-width="1366"
     inkscape:window-height="697"
     inkscape:window-x="0"
     inkscape:window-y="0"
     inkscape:window-maximized="1"
     inkscape:current-layer="svg7" />
  <g
     id="g5"
     inkscape:label="Ariiba">
    <path
       style="display:inline;fill:#1565c0"
       d="M 14.21875,4 C 11.881563,4 10,5.8732 10,8.2 V 13.8 18 29 H 55 V 18 13.8 8.2 C 55,5.8732 53.118437,4 50.78125,4 Z"
       id="path1"
       inkscape:label="Base" />
    <path
       style="opacity:0.1;fill:#ffffff"
       d="M 14.21875 4 C 11.881563 4 10 5.8724187 10 8.1992188 L 10 9.1992188 C 10 6.8724187 11.881563 5 14.21875 5 L 50.78125 5 C 53.118437 5 55 6.8724188 55 9.1992188 L 55 8.1992188 C 55 5.8724188 53.118437 4 50.78125 4 L 14.21875 4 z"
       id="path5"
       inkscape:label="Brillo" />
    <g
       id="g4"
       inkscape:label="Tirador">
      <path
         style="display:inline;opacity:0.2"
         d="m 28.5,13 c -0.831,0 -1.5,0.669 -1.5,1.5 0,0.831 0.669,1.5 1.5,1.5 h 8 C 37.331,16 38,15.331 38,14.5 38,13.669 37.331,13 36.5,13 Z"
         id="path3"
         sodipodi:nodetypes="sssssss"
         inkscape:label="Sombra" />
      <rect
         style="display:inline;fill:#ffffff"
         width="11"
         height="3"
         x="27"
         y="12"
         rx="1.5"
         ry="1.5"
         id="rect3"
         inkscape:label="Base" />
    </g>
  </g>
  <g
     id="g3"
     inkscape:label="Medio">
    <path
       style="fill:#1e88e5"
       d="M 14.21875,21 C 11.881563,21 10,22.8732 10,25.2 V 30.6 34.8 46 H 55 V 34.8 30.6 25.2 C 55,22.8732 53.118437,21 50.78125,21 Z"
       id="path2"
       inkscape:label="Base" />
    <path
       style="display:inline;opacity:0.1;fill:#ffffff"
       d="M 14.21875,21 C 11.881563,21 10,22.872419 10,25.199219 v 1 C 10,23.872419 11.881563,22 14.21875,22 h 36.5625 C 53.118437,22 55,23.872419 55,26.199219 v -1 C 55,22.872419 53.118437,21 50.78125,21 Z"
       id="path6"
       inkscape:label="Brillo" />
    <g
       id="g4-9"
       inkscape:label="Tirador"
       transform="translate(0,17)">
      <path
         style="display:inline;opacity:0.2"
         d="m 28.5,13 c -0.831,0 -1.5,0.669 -1.5,1.5 0,0.831 0.669,1.5 1.5,1.5 h 8 C 37.331,16 38,15.331 38,14.5 38,13.669 37.331,13 36.5,13 Z"
         id="path3-1"
         sodipodi:nodetypes="sssssss"
         inkscape:label="Sombra" />
      <rect
         style="display:inline;fill:#ffffff"
         width="11"
         height="3"
         x="27"
         y="12"
         rx="1.5"
         ry="1.5"
         id="rect3-2"
         inkscape:label="Base" />
    </g>
  </g>
  <g
     id="g1"
     inkscape:label="Abajo"
     style="display:inline">
    <rect
       style="display:inline;opacity:0.2"
       width="45"
       height="20"
       x="10"
       y="41"
       rx="4"
       ry="4"
       id="rect1"
       inkscape:label="Sombra" />
    <rect
       style="display:inline;fill:#42a5f5"
       width="45"
       height="20"
       x="10"
       y="40"
       rx="4"
       ry="4"
       id="rect2"
       inkscape:label="Base" />
    <g
       id="g2"
       inkscape:label="Tirador">
      <path
         d="m 28.5,49.5 c -0.831,0 -1.5,0.669 -1.5,1.5 0,0.831 0.669,1.5 1.5,1.5 h 8 c 0.831,0 1.5,-0.669 1.5,-1.5 0,-0.831 -0.669,-1.5 -1.5,-1.5 z"
         style="display:inline;opacity:0.2"
         id="path1-5"
         inkscape:label="Sombra" />
      <rect
         style="display:inline;fill:#ffffff"
         width="11"
         height="3"
         x="27"
         y="49"
         rx="1.5"
         ry="1.5"
         id="rect5"
         inkscape:label="Base" />
    </g>
    <path
       style="display:inline;opacity:0.2;fill:#ffffff"
       d="m 14,40 c -2.216,0 -4,1.784 -4,4 v 1 c 0,-2.216 1.784,-4 4,-4 h 37 c 2.216,0 4,1.784 4,4 v -1 c 0,-2.216 -1.784,-4 -4,-4 z"
       id="path7"
       inkscape:label="Brillo" />
  </g>
</svg>
